X: 17772
T: Honeybee, The
R: slip jig
M: 9/8
K: Gmajor
G3 BAG d3|G3 EFG DEF|G3 BAG d2d|ege edB BAB:|
g3 efg def|gfg efg a3|g3 efg dga|bag efg a3:|
g3 efg def|gfg efg a2a|bag agf ged|ege edB BAB|

